X:872
T:Tell a little star
C:Atte Andr\'e
O:Denmark
R:Swing
F:http://abc.musicaviva.com/tunes/andre-atte/andre-tell-a/andre-tell-a-1.abc
%Posted at abcusers Apr 29th 2000 by Atte Andr\'e
%%titlefont Times-Italic-Bold 35
%%textfont Courier-Italic 12
%%composerfont Courier-Italic 12
%%partsfont Times-Italic-Bold 20
%%vocalfont Helvetica 13
%%gchordfont - 18
%%composerspace 50
%%gchordspace 10
M:4/4
L:1/8
K:F
P:A
||"Fmaj"G2zF "Dm7"EFGA|"Gm7"cAFD "C7"GF2E-|"Eb7"EF/2^F/2 GE "D7"_Ed z2|"Gm7"zc (3AFD "Eb7"BF_DC-|!
"Am7"C4"Ab7"F4|"Gm7"B4 "C7"zCEF|"F6"z3C EFz2|[1"Gm7 C7"z8:|[2"Dm7"zCEF- "G7"FD=B,_A,||!
P:B
||"Cmaj"G,4"Am7"z4|"Dm7"zA,(3=B,CE "G7"DA2G-|"Cmaj"G4z4|"Ebm7"zB, (3C_DF "Ab7"_EB^GA-|!
"Dm7"ADFA "G7"ED zE-|"Am7"EA,CE "D7"=B,A, zD-|"Dm7"D4"G7"z4|"Gm7"zA (3FDB "C7"_AE2G||!
P:A
||"Fmaj"z3F "Dm7"EFGA|"Gm7"cAFD "C7"GF2E-|"Eb7"EF/2^F/2 GE "D7"_Ed z2|"Gm7"zc (3AFD "Eb7"BF_DC-|!
"Am7"C4"Ab7"F4|"Gm7"B4 "C7"zCEF|"F6 Dm7"z8|"Gm7 C7"z8|]
W:
W:
W:  From Musica Viva - http://www.musicaviva.com
W:  the Internet center for free sheet music downloads.

